X: 3306
T: COME O'ER THE STREAM CHARLIE
%R: waltz, air
B: James Kerr "Merry Melodies" v.3 p.33 #306
Z: 2016 John Chambers <jc:trillian.mit.edu>
M: 3/4
L: 1/4
K: G
D |\
G>Bd | dBe | dBg | dB(B/A/) |\
G>Bd | dBG | DBA | G2 uD |\
G>Bd | dBe | dBg | dB(B/A/) |\
G>Bd | dBg | dba | gz |]
d |\
gfg | efg | ea>g | fdd |\
g>fg | edc | BAG | d2c/B/ |\
cec | Bdg | dBG | BAd |\
g>fe | dgB | d>"_D.C. to Allegro."cB/A/ | Gz |]

%%sep 1 1 500
%%sep 1 1 500

